src/assets/svg/udemy-bg.svg

<svg width="47" height="80" viewBox="0 0 47 80" fill="none" xmlns="http://www.w3.org/2000/svg">
<g clip-path="url(#clip0_268_26416)">
<rect width="46.14" height="80" fill="#ECC94B" fill-opacity="0.05"/>
<path d="M35.2401 0L23.1001 21M28.5801 30.52L16.4401 9.5M29.7401 9.5H5.48007L-6.65993 30.5M0.0200748 0H46.1601M7.43866e-05 19L12.1401 40L7.43866e-05 61.02M-17.6199 30.5H6.66007M23.0601 40L7.43866e-05 0.04L-23.0799 40M23.0601 40L46.1601 0.04L69.2001 40M23.0601 40H69.2201L46.1401 80M58.2801 40L46.1401 19M51.6201 9.5L39.5001 30.5M28.5201 30.5H52.8001M5.48007 70.52L-6.65993 49.52M-17.6199 49.52H6.66007M7.43866e-05 80L23.0601 40.02L-23.0799 40.04L7.43866e-05 80ZM7.43866e-05 80H46.1401M35.2001 80L23.0801 59M28.5601 49.48L16.4001 70.5M5.44007 70.5H29.7001M46.1401 80L23.0801 40.02M58.2801 40.02L46.1401 61.02M51.6201 70.52L39.5001 49.52M28.5201 49.52H52.8001" stroke="#ECC94B" stroke-opacity="0.15" stroke-width="2" stroke-linecap="square"/>
</g>
<defs>
<clipPath id="clip0_268_26416">
<rect width="46.14" height="80" fill="white"/>
</clipPath>
</defs>
</svg>

<svg xmlns="http://www.w3.org/2000/svg" width="47" height="80" viewBox="0 0 47 80" fill="none"><g clip-path="url(#a)"><path fill="#ECC94B" fill-opacity=".05" d="M0 0h46.14v80H0z"/><path d="M35.24 0 23.1 21m5.48 9.52L16.44 9.5m13.3 0H5.48l-12.14 21M.02 0h46.14M0 19l12.14 21L0 61.02M-17.62 30.5H6.66m16.4 9.5L0 .04-23.08 40m46.14 0L46.16.04 69.2 40m-46.14 0h46.16L46.14 80m12.14-40L46.14 19m5.48-9.5-12.12 21m-10.98 0H52.8M5.48 70.52l-12.14-21m-10.96 0H6.66M0 80l23.06-39.98-46.14.02zm0 0h46.14M35.2 80 23.08 59m5.48-9.52L16.4 70.5m-10.96 0H29.7M46.14 80 23.08 40.02m35.2 0-12.14 21m5.48 9.5-12.12-21m-10.98 0H52.8" stroke="#ECC94B" stroke-opacity=".15" stroke-width="2" stroke-linecap="square"/></g><defs><clipPath id="a"><path fill="#fff" d="M0 0h46.14v80H0z"/></clipPath></defs></svg>
